public/files/perm/themes/base/zen/icons/workspace_premiumsvg.svg

<svg enable-background="new 0 0 24 24" fill="#d40055" height="40" viewBox="0 0 24 24" width="40" xmlns="http://www.w3.org/2000/svg"><path d="m0 0h24v24h-24z" fill="none"/><path d="m9.68 13.69 2.32-1.76 2.31 1.76-.88-2.85 2.32-1.84h-2.84l-.91-2.81-.91 2.81h-2.84l2.31 1.84zm10.32-3.69c0-4.42-3.58-8-8-8s-8 3.58-8 8c0 2.03.76 3.87 2 5.28v7.72l6-2 6 2v-7.72c1.24-1.41 2-3.25 2-5.28zm-8-6c3.31 0 6 2.69 6 6s-2.69 6-6 6-6-2.69-6-6 2.69-6 6-6z"/></svg>

<svg xmlns="http://www.w3.org/2000/svg" enable-background="new 0 0 24 24" height="40px" viewBox="0 0 24 24" width="40px" fill="#d40055"><rect fill="none" height="24" width="24"/><path d="M9.68,13.69L12,11.93l2.31,1.76l-0.88-2.85L15.75,9h-2.84L12,6.19L11.09,9H8.25l2.31,1.84L9.68,13.69z M20,10 c0-4.42-3.58-8-8-8s-8,3.58-8,8c0,2.03,0.76,3.87,2,5.28V23l6-2l6,2v-7.72C19.24,13.87,20,12.03,20,10z M12,4c3.31,0,6,2.69,6,6 s-2.69,6-6,6s-6-2.69-6-6S8.69,4,12,4z"/></svg>
